svgs/regular/align-justify.svg

<svg xmlns="http://www.w3.org/2000/svg" viewBox="0 0 448 512"><!-- Font Awesome Pro 6.0.0-alpha2 by @fontawesome - https://fontawesome.com License - https://fontawesome.com/license (Commercial License) --><path d="M424 296H24C10.745 296 0 306.745 0 320V320C0 333.255 10.745 344 24 344H424C437.255 344 448 333.255 448 320V320C448 306.745 437.255 296 424 296ZM424 424H24C10.745 424 0 434.745 0 448V448C0 461.255 10.745 472 24 472H424C437.255 472 448 461.255 448 448V448C448 434.745 437.255 424 424 424ZM424 168H24C10.745 168 0 178.745 0 192V192C0 205.255 10.745 216 24 216H424C437.255 216 448 205.255 448 192V192C448 178.745 437.255 168 424 168ZM424 40H24C10.745 40 0 50.745 0 64V64C0 77.255 10.745 88 24 88H424C437.255 88 448 77.255 448 64V64C448 50.745 437.255 40 424 40Z"/></svg>

<svg xmlns="http://www.w3.org/2000/svg" viewBox="0 0 448 512"><!--! Font Awesome Pro 6.3.0 by @fontawesome - https://fontawesome.com License - https://fontawesome.com/license (Commercial License) Copyright 2023 Fonticons, Inc. --><path d="M24 40C10.7 40 0 50.7 0 64S10.7 88 24 88H424c13.3 0 24-10.7 24-24s-10.7-24-24-24H24zm0 128c-13.3 0-24 10.7-24 24s10.7 24 24 24H424c13.3 0 24-10.7 24-24s-10.7-24-24-24H24zM0 320c0 13.3 10.7 24 24 24H424c13.3 0 24-10.7 24-24s-10.7-24-24-24H24c-13.3 0-24 10.7-24 24zM24 424c-13.3 0-24 10.7-24 24s10.7 24 24 24H424c13.3 0 24-10.7 24-24s-10.7-24-24-24H24z"/></svg>
